X:09
T:Introduction. ET.09, Le
M:2/4
L:1/8
Q:1/4=110
S:Eliza Tennyson MS, Lincolnshire,1822
R:Quadrille
O:England;Lincolnshire;Somersby
Z:vmp.R.Greig 2011 <http://www.village-music-project.org.uk>
K:Bb
F|BB/B/ BB|B>c e/d/c/B/|ff/f/ ff|f>g b/a/g/f/|!
bb/b/ ba|gf ed|c/d/e/c/ A/B/c/A/|”^bar line added” [B3D3]||!
f|FF/F/ Ff|FF/F/ Ff|[AF]f Bg|c/=B/c/d/ cd|!
ed ed|[g2G2] Ge/c/|BB B/A/G/A/|B2>F2|!
BB/B/ BB|B>c e/d/c/B/|ff/f/ ff|f>g b/a/g/f/|!
bb/b/ ba|gf ed|c/d/e/c/ A/B/c/A/|B3||!
d|g/^f/g/a/ ba/g/|ad ad|ad/e/ d/e/d/c/|B/c/B/A/ Gd|!
g/^f/g/a/ ba/g/|=f/=e/d’/c’/ =b/c’/_b/a/|a/g/b/g/ f/=e/d/e/|f>g f/_e/d/c/!D.C.!|]

